app/assets/images/heroicons/micro/arrow-turn-up-left.svg

<svg width="16" height="16" viewBox="0 0 16 16" fill="none" xmlns="http://www.w3.org/2000/svg">
<path fill-rule="evenodd" clip-rule="evenodd" d="M13.25 14C12.8358 14 12.5 13.6642 12.5 13.25V6.75H4.56066L5.53033 7.71967C5.82322 8.01256 5.82322 8.48744 5.53033 8.78033C5.23744 9.07322 4.76256 9.07322 4.46967 8.78033L2.21967 6.53033C1.92678 6.23744 1.92678 5.76256 2.21967 5.46967L4.46967 3.21967C4.76256 2.92678 5.23744 2.92678 5.53033 3.21967C5.82322 3.51256 5.82322 3.98744 5.53033 4.28033L4.56066 5.25H13.25C13.6642 5.25 14 5.58579 14 6V13.25C14 13.6642 13.6642 14 13.25 14Z" fill="black"/>
</svg>

<svg xmlns="http://www.w3.org/2000/svg" viewBox="0 0 16 16" fill="currentColor" aria-hidden="true" data-slot="icon">
  <path fill-rule="evenodd" d="M13.25 14a.75.75 0 0 1-.75-.75v-6.5H4.56l.97.97a.75.75 0 0 1-1.06 1.06L2.22 6.53a.75.75 0 0 1 0-1.06l2.25-2.25a.75.75 0 0 1 1.06 1.06l-.97.97h8.69A.75.75 0 0 1 14 6v7.25a.75.75 0 0 1-.75.75Z" clip-rule="evenodd"/>
</svg>
